svgs/sharp-light/earth-africa.svg

<svg xmlns="http://www.w3.org/2000/svg" viewBox="0 0 512 512"><!--! Font Awesome Pro 6.6.0 by @fontawesome - https://fontawesome.com License - https://fontawesome.com/license (Commercial License) Copyright 2024 Fonticons, Inc. --><path d="M480 256c0-10.9-.8-21.5-2.3-32L384 224l0 9.4 27.3 27.3 4.7 4.7 0 6.6 0 64 0 16-16 0-32 0 0 32 0 6.6-4.7 4.7-48 48-4.7 4.7-6.6 0-48 0-16 0 0-16 0-80-80 0-16 0 0-16 0-88 0-6.6 4.7-4.7 40-40 4.7-4.7 6.6 0 80.3 0L304 162.4l0-34.4-41.4 0-27.3 27.3-4.7 4.7-6.6 0-32 0-16 0 0-16 0-97.3C91.8 78.9 32 160.5 32 256c0 123.7 100.3 224 224 224s224-100.3 224-224zm-9.3-64C443.2 99.5 357.5 32 256 32c-16.5 0-32.5 1.8-48 5.2l0 90.8 9.4 0 27.3-27.3 4.7-4.7 6.6 0 64 0 16 0 0 16 0 56 0 5.6-3.5 4.4-32 40-4.8 6-7.7 0-81.4 0L176 254.6l0 65.4 80 0 16 0 0 16 0 80 25.4 0L336 377.4l0-41.4 0-16 16 0 32 0 0-41.4-27.3-27.3-4.7-4.7 0-6.6 0-32 0-16 16 0 102.7 0zM0 256a256 256 0 1 1 512 0A256 256 0 1 1 0 256z"/></svg>

<svg xmlns="http://www.w3.org/2000/svg" viewBox="0 0 512 512"><!--! Font Awesome Pro 6.5.2 by @fontawesome - https://fontawesome.com License - https://fontawesome.com/license (Commercial License) Copyright 2024 Fonticons, Inc. --><path d="M480 256c0-10.9-.8-21.5-2.3-32H384v9.4l27.3 27.3 4.7 4.7V272v64 16H400 368v32 6.6l-4.7 4.7-48 48-4.7 4.7H304 256 240V432 352H160 144V336 248v-6.6l4.7-4.7 40-40 4.7-4.7H200h80.3L304 162.4V128H262.6l-27.3 27.3-4.7 4.7H224 192 176V144 46.7C91.8 78.9 32 160.5 32 256c0 123.7 100.3 224 224 224s224-100.3 224-224zm-9.3-64C443.2 99.5 357.5 32 256 32c-16.5 0-32.5 1.8-48 5.2V128h9.4l27.3-27.3 4.7-4.7H256h64 16v16 56 5.6l-3.5 4.4-32 40-4.8 6H288 206.6L176 254.6V320h80 16v16 80h25.4L336 377.4V336 320h16 32V278.6l-27.3-27.3-4.7-4.7V240 208 192h16H470.7zM0 256a256 256 0 1 1 512 0A256 256 0 1 1 0 256z"/></svg>
